!!!COA: des Prez, Josquin
!!!CDT: ~1450-1521/08/27
!!!OTL: Dominus regnavit
!!!AGN: Motet
!!!SCT: NJE 17.1
!!!SCA: New Josquin Edition 17.1
!!!voices: 4
**kern	**kern	**kern	**kern
*part4	*part3	*part2	*part1
*staff4	*staff3	*staff2	*staff1
*Ivox	*Ivox	*Ivox	*Ivox
*I"Bassus	*I"Tenor	*I"Altus	*I"Superius
*I'B	*I'T	*I'A	*I'S
*>[A,B]	*>[A,B]	*>[A,B]	*>[A,B]
*>A	*>A	*>A	*>A
*clefF4	*clefGv2	*clefGv2	*clefG2
*k[b-e-]	*k[b-]	*k[b-e-]	*k[b-]
*g:	*d:	*g:	*d:
*M2/1	*M2/1	*M2/1	*M2/1
*met(C|)	*met(C|)	*met(C|)	*met(C|)
!!section: Prima pars: Dominus regnavit
!!!OMD: Prima pars
=	=	=	=
0r	0r	1r	1.f
.	.	[1B-	.
.	.	.	2f
=3	=3	=3	=3
0r	0r	2B-]	1f
.	.	2B-	.
.	.	1B-	1g
=4	=4	=4	=4
0r	0r	1c	1.a
.	.	[1d	.
.	.	.	2f
=5	=5	=5	=5
0r	0r	2d]	1f
.	.	2B-	.
.	.	1B-	2r
.	.	.	[2f
=6	=6	=6	=6
0r	0r	2r	2f]
.	.	1B-	2f
.	.	.	[1b-
.	.	2B-	.
=7	=7	=7	=7
0r	0r	1.e-	2b-]
.	.	.	2a
.	.	.	2g
.	.	2d	2f
=8	=8	=8	=8
0r	0r	2c	1g
.	.	2B-	.
.	.	1c	1r
=9	=9	=9	=9
0r	0r	1r	1f
.	.	1B-	[1g
=10	=10	=10	=10
0r	0r	1.c	2g]
.	.	.	2g
.	.	.	1g
.	.	2c	.
=11	=11	=11	=11
0r	0r	1c	1.a
.	.	[1d	.
.	.	.	2f
=12	=12	=12	=12
0r	0r	2d]	1f
.	.	2B-	.
.	.	1B-	[1b-
=13	=13	=13	=13
0r	0r	1.e-	2b-]
.	.	.	2a
.	.	.	2g
.	.	2d	2f
=14	=14	=14	=14
0r	0r	2c	2e
.	.	2B-	2d
.	.	2A	2c
.	.	2G	4d
.	.	.	4c
=15	=15	=15	=15
0r	0r	2F	4d
.	.	.	4e
.	.	2A	1f
.	.	1G	.
.	.	.	2e
=16	=16	=16	=16
1r	1.F	0F	0f
[1BB-	.	.	.
.	2F	.	.
=17	=17	=17	=17
2BB-]	1F	0r	0r
2BB-	.	.	.
1BB-	1G	.	.
=18	=18	=18	=18
1C	1.A	0r	0r
[1D	.	.	.
.	2F	.	.
=19	=19	=19	=19
2D]	1F	0r	0r
2BB-	.	.	.
1BB-	2r	.	.
.	[2F	.	.
=20	=20	=20	=20
2r	2F]	0r	0r
1BB-	2F	.	.
.	[1B-	.	.
2BB-	.	.	.
=21	=21	=21	=21
1.E-	2B-]	0r	0r
.	2A	.	.
.	2G	.	.
2D	2F	.	.
=22	=22	=22	=22
2C	1G	0r	0r
2BB-	.	.	.
1C	1r	.	.
=23	=23	=23	=23
1r	1F	0r	0r
1BB-	[1G	.	.
=24	=24	=24	=24
1.C	2G]	0r	0r
.	2G	.	.
.	1G	.	.
2C	.	.	.
=25	=25	=25	=25
1C	1.A	0r	0r
[1D	.	.	.
.	2F	.	.
=26	=26	=26	=26
2D]	1F	0r	0r
2BB-	.	.	.
1BB-	[1B-	.	.
=27	=27	=27	=27
1.E-	2B-]	0r	0r
.	2A	.	.
.	2G	.	.
2D	2F	.	.
=28	=28	=28	=28
2C	2E	0r	0r
2BB-	2D	.	.
2AA	2C	.	.
2GG	4D	.	.
.	4C	.	.
=29	=29	=29	=29
2FF	4D	0r	0r
.	4E	.	.
2AA	1F	.	.
1GG	.	.	.
.	2E	.	.
=30	=30	=30	=30
1FF	1F	1r	1f
1r	1r	1B-	1f
=31	=31	=31	=31
0r	0r	1B-	1g
.	.	1c	1g
=32	=32	=32	=32
1r	1F	1c	1a
1BB-	1F	1d	1f
=33	=33	=33	=33
1BB-	1G	1B-	1b-
1C	1G	1e-	2g
.	.	.	[2cc
=34	=34	=34	=34
2C	1A	2c	2cc]
1.D	.	1f	1a
.	1F	.	.
.	.	[2d	4g
.	.	.	4f
=35	=35	=35	=35
1BB-	1B-	2d]	1f
.	.	4c	.
.	.	4B-	.
1E-	1G	1B-	1r
=36	=36	=36	=36
1C	1.c	0r	0r
[1F	.	.	.
.	[2A	.	.
=37	=37	=37	=37
2F]	2A]	0r	1r
1D	4G	.	.
.	4F	.	.
.	1F	.	[1f
4C	.	.	.
4BB-	.	.	.
=38	=38	=38	=38
1BB-	0r	0B-	1f]
1r	.	.	1g
=39	=39	=39	=39
0r	0r	1c	1a
.	.	1d	1f
=40	=40	=40	=40
0r	0r	2B-	2.b-
.	.	2.e-	.
.	.	.	4a
.	.	.	4g
.	.	4d	4f
.	.	4c	[2g
.	.	4B-	.
=41	=41	=41	=41
0r	0r	2c	2g]
.	.	2A	1f
.	.	1G	.
.	.	.	2e
=42	=42	=42	=42
0BB-	1F	1F	1f
.	1G	1r	1r
=43	=43	=43	=43
1C	1A	0r	0r
1D	1F	.	.
=44	=44	=44	=44
2BB-	2.B-	0r	0r
2.E-	.	.	.
.	4A	.	.
.	4G	.	.
4D	4F	.	.
4C	[2G	.	.
4BB-	.	.	.
=45	=45	=45	=45
2C	2G]	0r	0r
2AA	1F	.	.
1GG	.	.	.
.	2E	.	.
=46	=46	=46	=46
0FF	0F	0r	0f
=47	=47	=47	=47
0r	0r	0B-	1f
.	.	.	1b-
=48	=48	=48	=48
0r	1r	1B-	2b-
.	.	.	2b-
.	1F	1f	2a
.	.	.	4f
.	.	.	4g
=49	=49	=49	=49
0r	1F	2f	4a
.	.	.	4b-
.	.	2f	1cc
.	1c	2e-	.
.	.	4c	4b-
.	.	4d	4a
=50	=50	=50	=50
0r	2c	4e-	1g
.	.	4f	.
.	2c	1g	.
.	2B-	.	1b-
.	4G	4f	.
.	4A	4e-	.
=51	=51	=51	=51
1BB-	4B-	1d	0f
.	4c	.	.
.	1d	.	.
1BB-	.	1f	.
.	4c	.	.
.	4B-	.	.
=52	=52	=52	=52
1F	1A	0c	0a
2F	[1c	.	.
2F	.	.	.
=53	=53	=53	=53
2E-	1c]	0e-	0g
4C	.	.	.
4D	.	.	.
4E-	1G	.	.
4F	.	.	.
[2G	.	.	.
=54	=54	=54	=54
2G]	1.B-	1d	1r
4F	.	.	.
4E-	.	.	.
1D	.	2d	2r
.	[2A	[2f	[2a
=55	=55	=55	=55
1F	2A]	2f]	2a]
.	2A	1c	1cc
1C	1c	.	.
.	.	[2e-	[2g
=56	=56	=56	=56
0E-	1G	2e-]	2g]
.	.	4d	1b-
.	.	4c	.
.	[1B-	2.B-	.
.	.	.	4a
.	.	4c	4g
=57	=57	=57	=57
2D	2B-]	2d	2.f
2F	4A	2.c	.
.	4G	.	4g
2F	2F	.	2a
.	.	4A	.
2E-	2G	2B-	[2g
=58	=58	=58	=58
1D	2A	1F	2g]
.	2F	.	2.f
1C	1G	1c	.
.	.	.	4d
.	.	.	2e
=59	=59	=59	=59
[0FF	1F	[0c	0f
.	1r	.	.
=60	=60	=60	=60
0FF]	1C	0c]	1r
.	2C	.	[1c
.	2C	.	.
=61	=61	=61	=61
2r	1.c	1r	2c]
2FF	.	.	2c
2FF	.	1F	[1cc
2FF	2c	.	.
=62	=62	=62	=62
1.F	1.A	2F	2cc]
.	.	2F	2cc
.	.	[1f	[1a
2F	2F	.	.
=63	=63	=63	=63
1.D	1F	2f]	2a]
.	.	2f	2f
.	[1B-	[1d	1f
2BB-	.	.	.
=64	=64	=64	=64
1BB-	2B-]	2d]	1.b-
.	2G	2B-	.
[1E-	1G	1B-	.
.	.	.	2g
=65	=65	=65	=65
2E-]	1r	1.e-	1g
2C	.	.	.
1C	1C	.	1r
.	.	2c	.
=66	=66	=66	=66
1r	2C	1c	1c
.	2C	.	.
1FF	[1c	1r	2c
.	.	.	2c
=67	=67	=67	=67
2FF	2c]	1F	1.cc
2FF	2c	.	.
[1F	[1A	2F	.
.	.	2F	2cc
=68	=68	=68	=68
2F]	2A]	1.f	1.a
2F	2F	.	.
[1D	1F	.	.
.	.	2f	2f
=69	=69	=69	=69
2D]	0B-	1.d	1f
2BB-	.	.	.
1BB-	.	.	[1b-
.	.	2B-	.
=70	=70	=70	=70
1E-	2G	2B-	2b-]
.	2.c	2.e-	2g
1C	.	.	2.cc
.	4B-	4d	.
.	4A	[2c	.
.	4G	.	4b-
=71	=71	=71	=71
1D	1F	4c]	4a
.	.	4A	4g
.	.	2B-	1f
1C	1G	1c	.
.	.	.	2e
=72	=72	=72	=72
0FF	1F	0c	1f
.	2r	.	1r
.	2C	.	.
=73	=73	=73	=73
1r	2C	0r	1c
.	2C	.	.
1FF	[1c	.	2c
.	.	.	2c
=74	=74	=74	=74
2FF	2c]	1F	1.cc
2FF	2c	.	.
[1F	[1A	2F	.
.	.	2F	2cc
=75	=75	=75	=75
2F]	2A]	1.f	1.a
2F	2F	.	.
[1D	1F	.	.
.	.	2f	2f
=76	=76	=76	=76
2D]	0B-	1.d	1f
2BB-	.	.	.
1BB-	.	.	[1b-
.	.	2B-	.
=77	=77	=77	=77
0E-	1G	1B-	1b-]
.	[1c	[1e-	1g
=78	=78	=78	=78
1C	1c]	1e-]	1.cc
[1F	1A	1c	.
.	.	.	2a
=79	=79	=79	=79
2F]	1r	1.f	1a
2D	.	.	.
1D	1F	.	1r
.	.	2d	.
=80	=80	=80	=80
1r	1.B-	1d	1f
1BB-	.	1r	[1b-
.	2B-	.	.
=81	=81	=81	=81
1.E-	1B-	1B-	2b-]
.	.	.	2b-
.	1G	[1e-	1b-
2E-	.	.	.
=82	=82	=82	=82
1E-	1.c	2e-]	1g
.	.	2e-	.
1C	.	1e-	[1cc
.	2B-	.	.
=83	=83	=83	=83
1.F	2A	1c	2cc]
.	2G	.	2b-
.	2F	1c	2a
2E-	2G	.	[2g
=84	=84	=84	=84
2D	2A	2d	2g]
2BB-	2B-	2d	1f
1C	1G	1c	.
.	.	.	2e
=85	=85	=85	=85
0FFl	0Fl	0cl	0fl
!!LO:LB:i:g=z
=86||	=86||	=86||	=86||
*>B	*>B	*>B	*>B
*clefF4	*clefGv2	*clefGv2	*clefG2
*k[b-e-]	*k[b-]	*k[b-e-]	*k[b-]
*M2/1	*M2/1	*M2/1	*M2/1
*met(C|)	*met(C|)	*met(C|)	*met(C|)
!!section: Secnda pars: Mirabiles elationes
!!!OMD: Secnda pars: Mirabiles elationes
0r	0r	1r	1f
.	.	1B-	2f
.	.	.	2f
=87	=87	=87	=87
0r	0r	2B-	1.g
.	.	2B-	.
.	.	[1c	.
.	.	.	2c
=88	=88	=88	=88
0r	0r	2c]	1.cc
.	.	2F	.
.	.	[1f	.
.	.	.	2b-
=89	=89	=89	=89
0r	1r	2f]	2a
.	.	2e-	2g
.	1F	2d	1a
.	.	2c	.
=90	=90	=90	=90
1BB-	2F	1d	1f
.	2F	.	.
2BB-	[1G	1B-	1r
2BB-	.	.	.
=91	=91	=91	=91
1.C	2G]	0r	0r
.	2C	.	.
.	[1c	.	.
2FF	.	.	.
=92	=92	=92	=92
1.F	2c]	0r	0r
.	2B-	.	.
.	2A	.	.
2E-	2G	.	.
=93	=93	=93	=93
2D	1A	0r	1r
2C	.	.	.
1D	1F	.	1f
=94	=94	=94	=94
1BB-	0r	1B-	2f
.	.	.	2f
1r	.	2B-	[1g
.	.	2B-	.
=95	=95	=95	=95
0r	0r	1.c	2g]
.	.	.	2c
.	.	.	[1cc
.	.	2F	.
=96	=96	=96	=96
0r	0r	1.f	2cc]
.	.	.	2b-
.	.	.	2a
.	.	2e-	2g
=97	=97	=97	=97
1r	1F	2d	1a
.	.	2c	.
1BB-	2F	[1d	1r
.	2F	.	.
=98	=98	=98	=98
2BB-	1.G	1d]	0r
2BB-	.	.	.
[1C	.	1r	.
.	2C	.	.
=99	=99	=99	=99
2C]	1.c	0r	0r
2FF	.	.	.
[1F	.	.	.
.	2B-	.	.
=100	=100	=100	=100
2F]	2A	2r	1r
2E-	2G	2c	.
2D	1A	2d	2r
2C	.	2e-	2cc
=101	=101	=101	=101
1D	1F	1f	2a
.	.	.	2.b-
1BB-	2.B-	1d	.
.	.	.	4a
.	.	.	4g
.	4A	.	4f
=102	=102	=102	=102
2C	2G	2c	2e
2D	2F	2B-	1f
1C	1G	1c	.
.	.	.	2e
=103	=103	=103	=103
0D	1F	1.A	0f
.	1r	.	.
.	.	4G	.
.	.	4F	.
=104	=104	=104	=104
1C	1G	1c	0r
2r	1G	1r	.
[2C	.	.	.
=105	=105	=105	=105
2C]	1.c	0r	0r
2C	.	.	.
[1F	.	.	.
.	2B-	.	.
=106	=106	=106	=106
2F]	2A	0r	0r
2E-	2G	.	.
2D	1F	.	.
2C	.	.	.
=107	=107	=107	=107
1BB-	1.G	0r	1r
[1C	.	.	1g
.	2F	.	.
=108	=108	=108	=108
2C]	2E	1c	1g
2BB-	2D	.	.
2AA	1C	1c	[1cc
2GG	.	.	.
=109	=109	=109	=109
0FF	0r	1.f	2cc]
.	.	.	2b-
.	.	.	2a
.	.	2e-	2g
=110	=110	=110	=110
0r	0r	2d	1f
.	.	2c	.
.	.	1B-	[1g
=111	=111	=111	=111
0r	0r	1.c	2g]
.	.	.	2f
.	.	.	2e
.	.	2B-	2d
=112	=112	=112	=112
0r	1.A	2A	1c
.	.	2G	.
.	.	1F	[1a
.	2G	.	.
=113	=113	=113	=113
2r	2F	2r	2a]
2C	2E	2c	2g
1D	1F	2A	[1f
.	.	2B-	.
=114	=114	=114	=114
2C	0G	2c	2f]
2BB-	.	2d	4e
.	.	.	4d
1C	.	1c	1e
=115	=115	=115	=115
0FF	0F	0c	0f
=116	=116	=116	=116
1r	1r	1r	1r
[1F	[1A	[1c	[1f
=117	=117	=117	=117
1F]	1A]	1c]	1f]
1F	1A	1c	1f
=118	=118	=118	=118
0BB-	0B-	0d	0f
=119	=119	=119	=119
[0F	[0A	0c	[0f
=120	=120	=120	=120
1F]	0A]	1r	0f]
1r	.	[1F	.
=121	=121	=121	=121
1.FF	0r	2F]	1r
.	.	2G	.
.	.	2A	[1c
2GG	.	2B-	.
=122	=122	=122	=122
2AA	1.C	0c	2c]
2BB-	.	.	2d
[1C	.	.	2e
.	2D	.	2f
=123	=123	=123	=123
1C]	2E	0G	0g
.	2F	.	.
[1GG	[1G	.	.
=124	=124	=124	=124
1GG]	1G]	1.B-	0d
[1BB-	[1D	.	.
.	.	2B-	.
=125	=125	=125	=125
2BB-]	1D]	0F	1.f
2BB-	.	.	.
[1FF	[1F	.	.
.	.	.	2f
=126	=126	=126	=126
0FF]	2F]	0r	[0c
.	2F	.	.
.	[1C	.	.
=127	=127	=127	=127
2r	1C]	0r	0c]
2FF	.	.	.
[1FF	2r	.	.
.	2C	.	.
=128	=128	=128	=128
2FF]	1.C	0r	0r
2GG	.	.	.
2AA	.	.	.
2BB-	2D	.	.
=129	=129	=129	=129
2C	2E	0r	0r
2D	2F	.	.
2E-	2G	.	.
2F	[2A	.	.
=130	=130	=130	=130
2C	2A]	0r	0r
1F	4G	.	.
.	4F	.	.
.	1G	.	.
2Eni	.	.	.
=131	=131	=131	=131
0F	0F	1F	1r
.	.	[1F	1c
=132	=132	=132	=132
0r	0r	2F]	1.c
.	.	2G	.
.	.	2A	.
.	.	2B-	2d
=133	=133	=133	=133
0r	0r	2c	2e
.	.	2d	2f
.	.	2e-	2g
.	.	2f	[2a
=134	=134	=134	=134
1FF	1r	2c	2a]
.	.	1f	4g
.	.	.	4f
2C	1C	.	1g
2C	.	2eni	.
=135	=135	=135	=135
1D	2F	1f	1f
.	2F	.	.
1C	1G	1r	1r
=136	=136	=136	=136
2D	2F	0r	0r
1F	2A	.	.
.	2G	.	.
2Eni	2G	.	.
=137	=137	=137	=137
1F	0F	2r	1r
.	.	2F	.
1r	.	2c	2r
.	.	2c	2c
=138	=138	=138	=138
0r	0r	1d	2f
.	.	.	2f
.	.	1c	1g
=139	=139	=139	=139
2r	1r	2d	2f
2FF	.	1f	2a
1C	1C	.	2g
.	.	2eni	2g
=140	=140	=140	=140
1D	1F	1f	1f
1C	1G	1r	1r
=141	=141	=141	=141
2D	2F	0r	0r
1F	2A	.	.
.	1G	.	.
2Eni	.	.	.
=142	=142	=142	=142
1F	0F	2r	1r
.	.	2F	.
1r	.	2c	2r
.	.	2c	2c
=143	=143	=143	=143
0r	0r	1d	1f
.	.	1c	1g
=144	=144	=144	=144
0r	0r	2d	2f
.	.	1f	2a
.	.	.	1g
.	.	2eni	.
=145	=145	=145	=145
1FF	1r	1f	2f
.	.	.	2f
1C	1C	2r	1g
.	.	2c	.
=146	=146	=146	=146
1D	1F	2A	2f
.	.	2B-	2d
1C	1G	1c	2e
.	.	.	[2g
=147	=147	=147	=147
2D	2F	1A	2g]
2F	2A	.	1f
1C	1G	1c	.
.	.	.	2e
=148	=148	=148	=148
[0FF	1F	0c	1f
.	2r	.	1r
.	2c	.	.
=149	=149	=149	=149
1FF]	2c	0r	2r
.	2c	.	2cc
2r	1A	.	2cc
2F	.	.	2cc
=150	=150	=150	=150
2F	2r	2r	1a
2F	1A	2f	.
[1D	.	2f	2r
.	2A	2f	[2a
=151	=151	=151	=151
1D]	2A	0d	2a]
.	2A	.	2a
2r	[1F	.	2a
[2D	.	.	2a
=152	=152	=152	=152
2D]	0F]	2r	1f
2D	.	1d	.
2D	.	.	1r
2D	.	2d	.
=153	=153	=153	=153
0BB-	0r	2d	0f
.	.	2d	.
.	.	1B-	.
=154	=154	=154	=154
0r	0r	2B-	1g
.	.	1c	.
.	.	.	1a
.	.	[2d	.
=155	=155	=155	=155
0r	0r	2d]	2.b-
.	.	2.e-	.
.	.	.	4a
.	.	.	4g
.	.	4d	4f
.	.	4c	4e
.	.	4B-	4d
=156	=156	=156	=156
0r	0r	4A	2c
.	.	4G	.
.	.	2F	1f
.	.	1G	.
.	.	.	2e
=157	=157	=157	=157
1r	0F	0F	0f
2r	.	.	.
[2BB-	.	.	.
=158	=158	=158	=158
2BB-]	1G	0r	0r
1C	.	.	.
.	1A	.	.
[2D	.	.	.
=159	=159	=159	=159
2D]	2.B-	0r	0r
2.E-	.	.	.
.	4A	.	.
.	4G	.	.
4D	4F	.	.
4C	4E	.	.
4BB-	4D	.	.
=160	=160	=160	=160
4AA	2C	0r	0r
4GG	.	.	.
2FF	1F	.	.
1GG	.	.	.
.	2E	.	.
=161	=161	=161	=161
[0FF	1F	0r	0r
.	2r	.	.
.	[2c	.	.
=162	=162	=162	=162
1FF]	2c]	0r	1.cc
.	2c	.	.
2r	2c	.	.
[2F	2c	.	2cc
=163	=163	=163	=163
2F]	0A	2r	2cc
2F	.	1f	2cc
2F	.	.	[1a
2F	.	2f	.
=164	=164	=164	=164
1D	0r	2f	1a]
.	.	2f	.
1r	.	1d	1f
=165	=165	=165	=165
0r	0r	2B-	1g
.	.	1c	.
.	.	.	1a
.	.	[2d	.
=166	=166	=166	=166
0r	0r	2d]	2.b-
.	.	2.e-	.
.	.	.	4a
.	.	.	4g
.	.	4d	4f
.	.	4c	4e
.	.	4B-	4d
=167	=167	=167	=167
0r	0r	4A	2c
.	.	4G	.
.	.	2F	1f
.	.	1G	.
.	.	.	2e
=168	=168	=168	=168
1r	0F	0F	0f
2r	.	.	.
[2BB-	.	.	.
=169	=169	=169	=169
2BB-]	1G	0r	0r
1C	.	.	.
.	1A	.	.
[2D	.	.	.
=170	=170	=170	=170
2D]	2.B-	0r	0r
2.E-	.	.	.
.	4A	.	.
.	4G	.	.
4D	4F	.	.
4C	4E	.	.
4BB-	4D	.	.
=171	=171	=171	=171
4AA	2C	0r	0r
4GG	.	.	.
2FF	1F	.	.
1GG	.	.	.
.	2E	.	.
=172	=172	=172	=172
2FF	1F	2r	0f
1F	.	1c	.
.	2r	.	.
2D	[2B-	2d	.
=173	=173	=173	=173
1E-	2B-]	2B-	1g
.	1c	2e-	.
1F	.	2c	1a
.	[2d	2f	.
=174	=174	=174	=174
1G	2d]	2d	2.b-
.	2.e	1g	.
.	.	.	4a
1C	.	.	4g
.	4d	.	4f
.	4c	2G	4e
.	4B-	.	4d
=175	=175	=175	=175
2F	4A	2A	2c
.	4G	.	.
2D	2F	2B-	1f
1C	1G	[1c	.
.	.	.	2e
=176	=176	=176	=176
1FF	[0Fl	2c]	[0fl
.	.	4B-	.
.	.	4A	.
1BB-	.	1d	.
=177	=177	=177	=177
0FFl	0F]	0cl	0f]
==	==	==	==
*-	*-	*-	*-
!!!RDF**kern: l=long note in original notation
!!!system-decoration: s1,s2,s3,s4
!!!RDF**kern: i = editorial accidental
!!!ENC: Chris Gage 04-23-2014
!!!END: 2020/10/21
!!!EED: Jesse Rodin
!!!EEV: 2020/10/23
!!attribution-level@Jos: 4a (the rest [double question mark])
!!!ONB: Translated from MusicXML and edited on 2020/10/23 by Craig Sapp
!!muse2ps: C^@{COA}?\n@{SCT}^i2I150v85,85,85,150c110
